X:2
T:Terrible Harmony 002 - Parallel Fifths
C:Generated (Intentionally Bad)
M:4/4
L:1/4
Q:1/4=113
K:G
V:S clef=treble
e4 | g4 | e4 | ^f4 | d4 | e4 | d4 | a4 | d4 | d4 | e4 | a4 |
V:B clef=bass
A,4 | C,4 | A,4 | B,4 | G,4 | A,4 | G,4 | D,4 | G,4 | G,4 | A,4 | D,4 |
% WARNING: Contains deliberate parallel fifths throughout
